Adwaita++/actions/16/fcitx-erbi.svg

<svg height="16" width="16" xmlns="http://www.w3.org/2000/svg">
  <path d="m2 0c-1.108 0-2 .892-2 2v12c0 1.108.892 2 2 2h12c1.108 0 2-.892 2-2v-12c0-1.108-.892-2-2-2zm8.03125.9921875 1 .015625c-.010188.6801477.012075 1.3377771.037109 1.9921875h2.931641v1h-2.882812c.148824 2.3082376.481442 4.4006193.890624 6.033203.290301 1.158273.615781 2.093664.91211 2.708985.148164.307659.292885.534515.396484.65625.04618.054259-.001421.030062.011719.039062.23837-.063597.37119-.153757.478516-.429688.121643-.312741.176093-.811555.183593-1.375l1 .011719c-.008065.606847-.046962 1.197587-.251953 1.72461-.20499.527023-.660068.999054-1.302734 1.111328a.50005.50005 0 0 1 -.080078.005859c-.371987.004804-.607553-.212401-.800781-.439453-.193232-.227052-.363747-.515167-.535157-.871094-.342818-.711854-.678517-1.695627-.980469-2.90039-.429417-1.7133482-.773587-3.8823096-.923828-6.275391h-8.115234v-1h8.070312c-.024568-.6600189-.049341-1.3215952-.039062-2.0078125zm2.96875.0078125c.416833.3789393.758179.7765262 1.023438 1.1933594l-.966797.5683594c-.227364-.4168334-.531218-.8331668-.910157-1.25zm-10 4h6v1h-6zm0 2h6v1h-6zm0 2h1 5v3h-1v-2h-4v2h-1v-2zm2.0097656 2h1.0820313c-.0832715 1.204012-.3837497 2.115307-.9296875 2.693359-.6441967.719985-1.7994641 1.155065-3.4667969 1.306641l-.4550781-.966797c1.5157571-.151576 2.5190977-.492922 3.0117187-1.023437.4297724-.429773.6762005-1.10749.7578125-2.009766zm1.6933594.998047c.9473481.454727 1.8194619.985494 2.6152344 1.591797l-.796875.910156c-.7578785-.644197-1.5905457-1.19371-2.5-1.648438z" fill="#474747"/>
</svg>

<svg xmlns="http://www.w3.org/2000/svg" width="16" height="16" version="1.1">
 <defs>
  <style id="current-color-scheme" type="text/css">
   .ColorScheme-Text { color:#474747; } .ColorScheme-Highlight { color:#4285f4; }
  </style>
 </defs>
 <path style="fill:currentColor" class="ColorScheme-Text" d="M 2 0 C 0.892 0 0 0.892 0 2 L 0 14 C 0 15.108 0.892 16 2 16 L 14 16 C 15.108 16 16 15.108 16 14 L 16 2 C 16 0.892 15.108 0 14 0 L 2 0 z M 10.03125 0.9921875 L 11.03125 1.0078125 C 11.021062 1.6879602 11.043325 2.3455896 11.068359 3 L 14 3 L 14 4 L 11.117188 4 C 11.266012 6.3082376 11.59863 8.4006193 12.007812 10.033203 C 12.298113 11.191476 12.623593 12.126867 12.919922 12.742188 C 13.068086 13.049847 13.212807 13.276703 13.316406 13.398438 C 13.362586 13.452697 13.314985 13.4285 13.328125 13.4375 C 13.566495 13.373903 13.699315 13.283743 13.806641 13.007812 C 13.928284 12.695071 13.982734 12.196257 13.990234 11.632812 L 14.990234 11.644531 C 14.982169 12.251378 14.943272 12.842118 14.738281 13.369141 C 14.533291 13.896164 14.078213 14.368195 13.435547 14.480469 A 0.50005 0.50005 0 0 1 13.355469 14.486328 C 12.983482 14.491132 12.747916 14.273927 12.554688 14.046875 C 12.361456 13.819823 12.190941 13.531708 12.019531 13.175781 C 11.676713 12.463927 11.341014 11.480154 11.039062 10.275391 C 10.609645 8.5620428 10.265475 6.3930814 10.115234 4 L 2 4 L 2 3 L 10.070312 3 C 10.045744 2.3399811 10.020971 1.6784048 10.03125 0.9921875 z M 13 1 C 13.416833 1.3789393 13.758179 1.7765262 14.023438 2.1933594 L 13.056641 2.7617188 C 12.829277 2.3448854 12.525423 1.928552 12.146484 1.5117188 L 13 1 z M 3 5 L 9 5 L 9 6 L 3 6 L 3 5 z M 3 7 L 9 7 L 9 8 L 3 8 L 3 7 z M 3 9 L 4 9 L 9 9 L 9 12 L 8 12 L 8 10 L 4 10 L 4 12 L 3 12 L 3 10 L 3 9 z M 5.0097656 11 L 6.0917969 11 C 6.0085254 12.204012 5.7080472 13.115307 5.1621094 13.693359 C 4.5179127 14.413344 3.3626453 14.848424 1.6953125 15 L 1.2402344 14.033203 C 2.7559915 13.881627 3.7593321 13.540281 4.2519531 13.009766 C 4.6817255 12.579993 4.9281536 11.902276 5.0097656 11 z M 6.703125 11.998047 C 7.6504731 12.452774 8.5225869 12.983541 9.3183594 13.589844 L 8.5214844 14.5 C 7.7636059 13.855803 6.9309387 13.30629 6.0214844 12.851562 L 6.703125 11.998047 z"/>
</svg>
